X: 78
T: Bonney Dundee
P: Longways for as many as will
%R: jig
B: "The Compleat Country Dancing-Master" printed by John Walsh, London ca. 1740
S: 7: DMDfD http://digital.nls.uk/special-collections-of-printed-music/pageturner.cfm?id=89751228 p.137 "N 3"
Z: 2013 John Chambers <jc:trillian.mit.edu>
M: 6/4
L: 1/4
K: Gm
% - - - - - - - - - - - - - - - - - - - - - - - - -
D |\
DGG G2B | AFF A/B/cc |\
d2d =e>^fg | d>c B/A/ G2 |] f |\
f>g a/g/ f>g a/g/ | f2F A/B/cc |
=e/^f/gg g2b | a>g f/=e/ d2=e |\
f>g a/g/ f>g a/g/ | f2F A/B/cc |\
d2d =e>^fg | d>c B/A/ G2 |]
% - - - - - - - - Dance description - - - - - - - -
%%begintext align
%% The 1. cu. take hands and lead down to the 2. man, then fall back, and all four turn S. then 2. cu.
%% take hands and lead up to the 1. wo. so fall back and turn S.
%%endtext
%%sep 1 1 300
%%begintext align
%% The 1. man go round about the 1. wo. into his own place, and 2. wo. go round about the 1. man into
%% her own place, then 1. wo. go round about the 1. man into her own place, and 2. man to round
%% about the 2. wo. into his own place, then all four hands half round, so fall back neat, and clap hands
%% and turn your own.
%% [DMDfD]
%%endtext
%%sep 1 8 500

%%sep 1 1 500
%%sep 1 1 500
